SVG-Logos/Software/Design/adobe-xd-prt.svg

<svg width="35" height="34" viewBox="0 0 35 34" fill="none" xmlns="http://www.w3.org/2000/svg">
<g clip-path="url(#clip0)">
<path d="M6.72063 0.333496H28.8004C32.148 0.333496 34.8545 3.04005 34.8545 6.38763V27.6127C34.8545 30.9603 32.148 33.6668 28.8004 33.6668H6.72063C3.37306 33.6668 0.666504 30.9603 0.666504 27.6127V6.38763C0.666504 3.04005 3.37306 0.333496 6.72063 0.333496Z" fill="#470137"/>
<path d="M18.6435 9.09405L14.37 16.1453L18.9284 23.624C18.9569 23.6809 18.9712 23.7379 18.9569 23.7949C18.9427 23.8519 18.8857 23.8091 18.8002 23.8234H15.5381C15.3102 23.8234 15.1535 23.8091 15.0538 23.6667C14.7546 23.0684 14.4412 22.4844 14.1421 21.8861C13.843 21.302 13.5153 20.7037 13.1734 20.0912C12.8316 19.4787 12.4897 18.8661 12.1478 18.2393H12.1193C11.8202 18.8519 11.4925 19.4644 11.1649 20.077C10.8373 20.6895 10.5096 21.302 10.1962 21.9003C9.8686 22.4986 9.54096 23.1111 9.21333 23.6952C9.15635 23.8376 9.04239 23.8519 8.88569 23.8519H5.75179C5.69481 23.8519 5.65207 23.8804 5.65207 23.8091C5.63783 23.7522 5.65207 23.6952 5.68056 23.6524L10.1108 16.3875L5.79452 9.0798C5.75179 9.02282 5.73754 8.96584 5.76603 8.93735C5.79452 8.89462 5.8515 8.88037 5.90848 8.88037H9.1421C9.21333 8.88037 9.28455 8.89462 9.34153 8.90886C9.39851 8.93735 9.44125 8.98009 9.48398 9.03707C9.75464 9.6496 10.068 10.2621 10.3957 10.8747C10.7375 11.4872 11.0652 12.0855 11.4213 12.6838C11.7632 13.2821 12.0766 13.8804 12.3757 14.4929H12.4042C12.7034 13.8661 13.0167 13.2536 13.3301 12.6553C13.6435 12.057 13.9712 11.4587 14.2988 10.8604C14.6264 10.2621 14.9398 9.6496 15.2532 9.06556C15.2675 9.00858 15.2959 8.9516 15.3387 8.92311C15.3957 8.89462 15.4526 8.88037 15.5239 8.89462H18.5296C18.6008 8.88037 18.672 8.92311 18.6863 8.99433C18.7005 9.00858 18.672 9.06556 18.6435 9.09405Z" fill="#FF61F6"/>
<path d="M25.2242 24.1229C24.1701 24.1371 23.116 23.9234 22.1616 23.4818C21.2641 23.0687 20.5234 22.385 20.0106 21.5445C19.4835 20.6756 19.2271 19.5929 19.2271 18.2966C19.2129 17.2425 19.4835 16.2026 20.0106 15.2909C20.5519 14.365 21.3354 13.5958 22.2755 13.083C23.2727 12.5274 24.4693 12.2568 25.8795 12.2568C25.9507 12.2568 26.0505 12.2568 26.1787 12.271C26.3069 12.2852 26.4493 12.2852 26.6203 12.2995V7.79807C26.6203 7.69835 26.663 7.64137 26.7627 7.64137H29.6544C29.7257 7.62713 29.7827 7.68411 29.7969 7.74109C29.7969 7.75533 29.7969 7.76958 29.7969 7.76958V21.3308C29.7969 21.5872 29.8111 21.8721 29.8254 22.1855C29.8539 22.4847 29.8681 22.7696 29.8824 23.0117C29.8824 23.1115 29.8396 23.1969 29.7399 23.2397C28.9992 23.5531 28.2157 23.781 27.418 23.9234C26.6915 24.0516 25.965 24.1229 25.2242 24.1229ZM26.6203 21.2739V15.006C26.4921 14.9776 26.3639 14.9491 26.2356 14.9348C26.0789 14.9206 25.9223 14.9063 25.7656 14.9063C25.21 14.9063 24.6544 15.0203 24.1559 15.2767C23.6715 15.5189 23.2584 15.875 22.945 16.3308C22.6317 16.7867 22.475 17.3992 22.475 18.1399C22.4607 18.6385 22.5462 19.1371 22.7171 19.6072C22.8596 19.9918 23.0733 20.3337 23.3582 20.6186C23.6288 20.875 23.9564 21.0744 24.3268 21.1884C24.7114 21.3166 25.1103 21.3736 25.5091 21.3736C25.7228 21.3736 25.9223 21.3593 26.1074 21.3451C26.2926 21.3593 26.4493 21.3308 26.6203 21.2739Z" fill="#FF61F6"/>
</g>
<defs>
<clipPath id="clip0">
<rect width="34.188" height="33.3333" fill="white" transform="translate(0.666504 0.333496)"/>
</clipPath>
</defs>
</svg>

<svg xmlns="http://www.w3.org/2000/svg" fill="none" viewBox="0 0 35 34"><g clip-path="url(#a)"><path fill="#470137" d="M6.72.333H28.8a6.049 6.049 0 0 1 6.055 6.055v21.225a6.049 6.049 0 0 1-6.055 6.054H6.72a6.049 6.049 0 0 1-6.053-6.054V6.388A6.05 6.05 0 0 1 6.72.333Z"/><path fill="#FF61F6" d="m18.643 9.094-4.273 7.051 4.558 7.479c.029.057.043.114.029.17-.014.058-.071.015-.157.03h-3.262c-.228 0-.385-.015-.484-.157-.3-.599-.613-1.183-.912-1.78-.299-.585-.627-1.183-.969-1.796-.341-.612-.683-1.225-1.025-1.852h-.029c-.299.613-.627 1.225-.954 1.838-.328.612-.655 1.225-.969 1.823-.327.599-.655 1.211-.983 1.795-.057.143-.17.157-.327.157H5.752c-.057 0-.1.028-.1-.043a.198.198 0 0 1 .029-.157l4.43-7.265L5.795 9.08c-.043-.057-.057-.114-.029-.143.029-.042.085-.057.142-.057h3.234a.84.84 0 0 1 .2.029c.057.028.1.071.142.128.27.613.584 1.225.912 1.838.341.612.67 1.21 1.025 1.809.342.598.656 1.196.955 1.809h.028c.3-.627.613-1.24.926-1.838.313-.598.641-1.196.969-1.795.327-.598.64-1.21.954-1.794.014-.057.043-.114.086-.143.057-.028.114-.043.185-.028h3.006a.131.131 0 0 1 .156.1c.015.014-.014.07-.043.1ZM25.224 24.123a7.082 7.082 0 0 1-3.062-.641 4.965 4.965 0 0 1-2.151-1.938c-.527-.868-.784-1.951-.784-3.247a5.85 5.85 0 0 1 .784-3.006 5.916 5.916 0 0 1 2.265-2.208c.997-.556 2.193-.826 3.604-.826.07 0 .17 0 .299.014.128.014.27.014.441.028V7.8c0-.1.043-.158.143-.158h2.891c.072-.014.129.043.143.1V21.33c0 .257.014.542.028.856.029.299.043.584.057.826 0 .1-.042.185-.142.228-.74.313-1.524.541-2.322.683-.726.129-1.453.2-2.194.2Zm1.396-2.85v-6.267c-.128-.028-.256-.057-.384-.071-.157-.014-.314-.029-.47-.029-.556 0-1.112.114-1.61.37a3.194 3.194 0 0 0-1.211 1.055c-.313.456-.47 1.068-.47 1.809a3.97 3.97 0 0 0 .242 1.467c.143.385.356.727.641 1.012.27.256.598.455.969.57.384.128.783.185 1.182.185.214 0 .413-.015.598-.029.186.014.342-.014.513-.071Z"/></g><defs><clipPath id="a"><path fill="#fff" d="M.667.333h34.188v33.333H.667z"/></clipPath></defs></svg>
